packages/core/src/svgs/tokens/branded/KOIN.svg

<svg width="24" height="24" viewBox="0 0 24 24" fill="none" xmlns="http://www.w3.org/2000/svg">
<path fill-rule="evenodd" clip-rule="evenodd" d="M11.9997 3.08889L4.22195 7.54446V16.4556L11.9997 20.9111L19.7775 16.4556V7.54446L11.9997 3.08889ZM20.8887 7.00001L11.9997 2L3.11084 7.00001V17.0001L11.9997 22L20.8887 17.0001V7.00001Z" fill="#6F00F6"/>
<path fill-rule="evenodd" clip-rule="evenodd" d="M12.0007 8.66662L9.22292 10.3055V13.6944L12.0007 15.3333L14.7785 13.6944V10.3055L12.0007 8.66662ZM15.8896 9.77777L12.0007 7.55551L8.11182 9.77777V14.2221L12.0007 16.4444L15.8896 14.2221V9.77777Z" fill="#6F00F6"/>
<path d="M11.4443 12.2226L3.3999 7.69476L3.88324 6.87253L11.9999 11.4448L19.9221 6.87809L20.4055 7.6892L12.5555 12.2226V21.2947H11.4443V12.2226Z" fill="#6F00F6"/>
</svg>

<svg xmlns="http://www.w3.org/2000/svg" width="24" height="24" fill="none" viewBox="0 0 24 24">
    <path fill="#6F00F6" fill-rule="evenodd" d="M12 3.089 4.222 7.544v8.912L12 20.91l7.778-4.455V7.544zM20.889 7l-8.89-5-8.888 5v10L12 22l8.889-5z" clip-rule="evenodd"/>
    <path fill="#6F00F6" fill-rule="evenodd" d="m12 8.667-2.777 1.639v3.388L12 15.334l2.778-1.64v-3.389zm3.89 1.11L12 7.557 8.113 9.778v4.444L12 16.444l3.889-2.222z" clip-rule="evenodd"/>
    <path fill="#6F00F6" d="M11.444 12.223 3.4 7.695l.483-.822L12 11.445l7.922-4.567.483.811-7.85 4.534v9.072h-1.11z"/>
</svg>
